X: 4252
T: McLEAN'S PIPES
%R: jig
B: James Kerr "Merry Melodies" v.4 p.27 #252
Z: 2016 John Chambers <jc:trillian.mit.edu>
M: 6/8
L: 1/8
K: D
|:\
fef d2d | fef a3 | fef d2d | g2f e3 |\
fef d2d | fef a3 | ABA def | e3 d3 :|
|:\
aba afa | a3- a2f | =gag dBd | =g3- g2e |\
aba fdf | gab afd | ABA def | e3 d3 :|

%%sep 1 1 500
%%sep 1 1 500

